X: 39933
T: Thomond Bridge
R: hornpipe
M: 4/4
K: Gmajor
|:b>a|g>ed>B c>Ad>c|B2 G2 G2 g>a|b>ag>f g>ba>g|f2 d2 d2 d>B|
c>eg>c' B>dg>b|A>ce>a G>Bd>g|f>ga>b c'>af>d|g2 g2 g2:|
|:d>c|B>gd>g B>gd>g|b>ag>f e>dc>B|c>ae>a c>ae>a|c'>ba>g (3fgf (3edc|
B>gd>g B>gd>g|b>ag>f e>dc>B|c>ed>c B>AG>F|A2 G2 G2:|

